X:1
T:This Is Our Endeavor
T:Ira David Sankey
T:This Is Our Endeavor
T:Public Domain
T:Public Domain
C:Ira David Sankey
Z:Public Domain
%%score 1 ( 2 3 )
L:1/8
M:6/8
K:C
V:1 treble 
V:2 bass 
V:3 bass 
V:1
 [EG]2 [^D^F] [=FA]2 [EG] | [EG]3 [CE]2 z | [EG]2 [EG] [DF]2 [B,D] | [CE]3- [CE]2 z | %4
w: 1.~Lone- ly hearts to|com- fort,|Wear- y lives to|cheer— *|
w: 2.~Press- ing on to-|ge- ther,|Do- ing good to|all, *|
w: 3.~On- ward, ev- er|on- ward,|Trust- ing in the|Lord, *|
 [EG]2 [^D^F] [=FA]2 [EG] | [EG]3 [Ec]2 z | [DB]2 [Dc] [DB]2 [CA] | [B,G]3- [B,G]2 z | %8
w: This is our en-|dea- vor,|This our mis- sion|here; *|
w: In the name of|Je- sus,|Lift- ing those who|fall; *|
w: Look we for the|prom- ise|Of a blest re-|ward, *|
 [DB]2 [Ec] [Fd]2 [FB] | [Ec]3 [EG]2 z | [DF]2 [DF] [EG]2 [DF] | [CE]3- [CE]2 z | %12
w: Seek- ing out the|lost ones|On the mount- ains|cold, *|
w: To the poor and|friend- less|Give with o- pen|hand— *|
w: Robes and palms of|glor- y,|Man- sions bright and|fair, *|
 [CE]2 [EG] [Gc]2 [GB] | [Fd]3 [FA]2 z | [EG]2 [Ec] [Fc]2 [FB] | [Ec]3- [Ec]2 z |] %16
w: We would glad- ly|bring them|To the Shep- herd’s|fold. *|
w: This is our en-|dea- vor,|This the Lord’s com-|mand. *|
w: Wel- come from the|Sav- ior,|Rest for ev- er|there. *|
V:2
 [C,C]2 [C,C] [C,C]2 [C,C] | [C,C]3 [C,G,]2 z | G,2 G, [G,,G,]2 [G,,G,] | [C,G,]3- [C,G,]2 z | %4
 [C,C]2 [C,C] [C,C]2 [C,C] | [C,C]3 [C,G,]2 z | [D,G,]2 [D,A,] [D,G,]2 [D,^F,] | %7
 [G,,G,]3- [G,,G,]2 z | G,2 G, [G,B,]2 [G,D] | [C,C]3 [C,C]2 z | G,2 G, [G,B,]2 G, | %11
 [C,G,]3- [C,G,]2 z | [C,G,]2 [C,C] [E,C]2 [E,C] | [F,A,]3 [F,C]2 z | [G,C]2 G, [G,D]2 G, | %15
 [C,G,]3- [C,G,]2 z |] %16
V:3
 x6 | x6 | G,2 G, x3 | x6 | x6 | x6 | x6 | x6 | G,2 G, x3 | x6 | G,2 G, x G, x | x6 | x6 | x6 | %14
 x2 G, x G, x | x6 |] %16

